lib/preview/nrk-logo-preview-nrk-trafikk-with-bg.svg

<svg width="103" height="24" viewBox="0 0 103 24" fill="none" xmlns="http://www.w3.org/2000/svg">
<rect width="103" height="24" fill="#1767CE"/>
<path d="M6.00427 17.9998V6.00085H9.94146V17.9998H6.00427ZM15.2981 7.91054L17.5623 17.9998H13.2534L10.5498 6.00085H12.9664C13.5206 5.99365 14.0583 6.189 14.4788 6.55015C14.8999 6.89614 15.1892 7.37645 15.2981 7.91054ZM18.1538 17.9998V6.00085H22.091V17.9998H18.1538ZM25.0647 10.5639C24.6405 10.568 24.223 10.457 23.8568 10.2427C23.4955 10.0339 23.1954 9.73371 22.9865 9.37235C22.7721 9.00609 22.661 8.58852 22.6652 8.16407C22.6604 7.74222 22.7715 7.32714 22.9865 6.96418C23.1976 6.60675 23.4974 6.30985 23.8568 6.10228C24.2231 5.88826 24.6405 5.77727 25.0647 5.78114C25.4865 5.7766 25.9014 5.88768 26.2645 6.10228C26.6203 6.31167 26.9169 6.60832 27.1263 6.96418C27.3411 7.32724 27.4522 7.74225 27.4476 8.16407C27.4515 8.58848 27.3405 9.00598 27.1263 9.37235C26.9191 9.73213 26.6222 10.032 26.2645 10.2427C25.9014 10.4577 25.4862 10.5688 25.0642 10.5639H25.0647ZM28.0559 17.9998V6.00085H31.9934V17.9998H28.0559ZM36.978 12.558C36.9891 12.5696 37.0735 12.7076 37.2314 12.972C37.3893 13.2364 37.5949 13.5744 37.8482 13.986C38.1017 14.3975 38.3692 14.834 38.6506 15.2958C38.932 15.7575 39.1969 16.1941 39.4451 16.6055C39.6924 17.017 39.974 17.4817 40.29 17.9998H35.9641C35.6936 17.5604 35.4484 17.1632 35.2287 16.8083C35.0091 16.4534 34.7756 16.0703 34.5281 15.6591C34.2801 15.2483 34.0349 14.8483 33.7925 14.4592C33.5501 14.0701 33.3418 13.7294 33.1675 13.4368C32.9925 13.1441 32.8713 12.9469 32.8039 12.8453C32.6368 12.5932 32.5379 12.3021 32.517 12.0003C32.5337 11.7107 32.6269 11.4307 32.787 11.1889C32.8546 11.0762 32.9786 10.8762 33.1588 10.5889C33.339 10.3016 33.5503 9.96081 33.7925 9.56648C34.0347 9.17215 34.2799 8.76936 34.5281 8.35813C34.7763 7.9469 35.0098 7.56099 35.2287 7.20046C35.4488 6.84031 35.6939 6.44034 35.9641 6.00057H40.29L36.9439 11.4593C36.8404 11.6213 36.782 11.8081 36.7749 12.0003C36.786 12.2021 36.8565 12.3961 36.9774 12.558H36.978Z" fill="white"/>
<path d="M54.408 6.05366H44.8615V7.53942H48.7511V18.041H50.5347V7.53942H54.4077L54.408 6.05366Z" fill="#D4EEFC"/>
<path d="M57.8903 9.37141C57.5727 9.4563 57.2693 9.58714 56.99 9.75973C56.7003 9.9396 56.4324 10.152 56.1916 10.3929C56.1514 10.4328 56.1123 10.4773 56.0727 10.5192V9.2617L54.3401 9.51492V18.0411H56.0727V11.6625C56.2014 11.5732 56.3347 11.4904 56.4719 11.4146C56.6417 11.3214 56.8175 11.2395 56.9982 11.1695C57.174 11.102 57.3521 11.0429 57.5336 10.9925C57.72 10.9408 57.9103 10.904 58.1026 10.8825C58.3085 10.8599 58.5159 10.8542 58.7226 10.8656L58.9265 9.27856C58.5783 9.25383 58.2284 9.28518 57.8903 9.37141Z" fill="#D4EEFC"/>
<path d="M67.6407 16.9772C67.5166 16.9886 67.3915 16.97 67.2761 16.9229C67.1608 16.8759 67.0586 16.8019 66.9782 16.7071C66.8207 16.4366 66.7552 16.1227 66.7914 15.8122L66.8253 12.3342C66.8291 11.9696 66.7834 11.6062 66.6895 11.2537C66.607 10.9445 66.4689 10.6528 66.2818 10.3926C66.0928 10.1382 65.8527 9.92548 65.5768 9.76793C65.2563 9.58691 64.9097 9.45594 64.5492 9.37961C64.1083 9.2852 63.6581 9.23999 63.2072 9.24482C62.8495 9.24458 62.4922 9.26704 62.1373 9.31208C61.8019 9.35398 61.4698 9.41887 61.1433 9.50625C60.8408 9.58782 60.5431 9.68644 60.2518 9.8017L60.0477 11.2368C60.3308 11.1355 60.5998 11.0511 60.8546 10.9836C61.1094 10.916 61.3556 10.8597 61.5934 10.8147C61.8264 10.7703 62.0618 10.7394 62.2984 10.7221C62.5304 10.7051 62.7598 10.6965 62.9867 10.6965C63.3331 10.6892 63.6788 10.7289 64.0143 10.8147C64.259 10.8757 64.4841 10.9977 64.6681 11.1693C64.8319 11.3362 64.949 11.5428 65.0078 11.7686C65.0805 12.047 65.1149 12.3339 65.11 12.6215L65.108 13.0436L63.1223 13.1773C62.4432 13.1962 61.7741 13.3453 61.1518 13.6163C60.6862 13.8188 60.2842 14.1426 59.9882 14.5533C59.7372 14.9189 59.6038 15.3516 59.606 15.7942C59.6029 16.2095 59.7051 16.6189 59.9033 16.9845C60.1111 17.3601 60.4238 17.6679 60.8035 17.8709C61.267 18.1105 61.7849 18.2268 62.3069 18.2086C62.7961 18.2197 63.2831 18.1396 63.7426 17.9722C64.1397 17.8178 64.503 17.5885 64.8125 17.2969C64.93 17.1849 65.0414 17.0668 65.1465 16.9432C65.1796 17.1179 65.2418 17.286 65.3305 17.4404C65.4818 17.6989 65.7147 17.9007 65.993 18.0144C66.3006 18.1372 66.6298 18.1975 66.9612 18.1917C67.0632 18.1917 67.1623 18.1889 67.2588 18.1833C67.3532 18.1779 67.447 18.1637 67.5388 18.1411C67.6294 18.1185 67.7112 18.0989 67.7851 18.082C67.8517 18.0672 67.9169 18.0475 67.9805 18.0229L68.1676 16.8917C68.0737 16.9235 67.9769 16.9462 67.8785 16.9592C67.7997 16.9702 67.7203 16.9762 67.6407 16.9772ZM65.0947 15.9515C65.0082 16.0481 64.9135 16.1371 64.8116 16.2175C64.6274 16.3621 64.4281 16.4866 64.2171 16.5889C64.0069 16.6905 63.7843 16.7643 63.5548 16.8084C63.317 16.8541 63.0752 16.8767 62.833 16.8759C62.556 16.8838 62.2806 16.832 62.0258 16.724C61.8186 16.6346 61.6438 16.4844 61.5249 16.2935C61.4072 16.0911 61.3483 15.8602 61.3551 15.6266C61.3387 15.3451 61.4163 15.0661 61.5759 14.833C61.7608 14.6185 62.0114 14.4702 62.2893 14.4109C62.7233 14.3094 63.1687 14.264 63.6143 14.2759H65.1018L65.0947 15.9515Z" fill="#D4EEFC"/>
<path d="M74.0359 5.42903C73.8604 5.39527 73.6821 5.36994 73.5009 5.35305C73.3197 5.33617 73.1272 5.3277 72.9233 5.3277C72.5542 5.32535 72.1873 5.38239 71.8365 5.49657C71.5031 5.60556 71.1983 5.78727 70.9447 6.0284C70.6821 6.28238 70.4791 6.59078 70.3502 6.93166C70.1999 7.34259 70.1279 7.77769 70.1378 8.2148V9.43043H68.8638V10.7473H70.1378V18.0411H71.8704V10.7473H74.2485V9.43043H71.8704V8.0291C71.8667 7.83649 71.8984 7.64482 71.9639 7.4635C72.0194 7.31029 72.1093 7.17168 72.2269 7.05828C72.35 6.94583 72.4987 6.86474 72.6603 6.82192C72.851 6.76937 73.0482 6.74378 73.2461 6.74593C73.3823 6.74593 73.5119 6.75186 73.637 6.76283C73.7622 6.77381 73.8831 6.79095 74.0023 6.81347C74.1215 6.83598 74.2341 6.85849 74.342 6.881C74.438 6.89998 74.5318 6.92827 74.6223 6.96543L74.5543 5.5641C74.3847 5.50784 74.2115 5.46272 74.0359 5.42903Z" fill="#D4EEFC"/>
<path d="M75.9298 18.0411H77.6624V9.2617L75.9298 9.51492V18.0411Z" fill="#D4EEFC"/>
<path d="M77.4162 5.72434C77.2399 5.61727 77.0367 5.5617 76.8301 5.56396C76.6209 5.56229 76.4152 5.61776 76.2356 5.72434C76.0584 5.82748 75.9096 5.97246 75.8024 6.14643C75.6945 6.32163 75.6386 6.52355 75.6411 6.72894C75.6392 6.9369 75.695 7.14134 75.8024 7.31985C75.9063 7.49645 76.0559 7.64219 76.2356 7.74194C76.417 7.84337 76.622 7.89574 76.8301 7.89387C77.0356 7.8963 77.2381 7.84385 77.4162 7.74194C77.5909 7.64143 77.7348 7.49551 77.8323 7.31985C77.9344 7.13954 77.9871 6.9358 77.9852 6.72894C77.9877 6.52467 77.9349 6.32347 77.8323 6.14643C77.7314 5.97328 77.5883 5.82813 77.4162 5.72434Z" fill="#D4EEFC"/>
<path d="M87.7016 9.43038H85.5782L82.6716 12.6045H82.045V5.29388L80.3124 5.54714V18.041H82.045V13.9045H82.0733L85.544 18.041H87.7862L83.6658 13.4261L87.7016 9.43038Z" fill="#D4EEFC"/>
<path d="M92.5838 13.3817L96.6195 9.38594H94.4962L91.5895 12.5601H90.963V5.24976L89.2303 5.50302V17.9969H90.963V13.8604H90.9913L94.462 17.9969H96.7042L92.5838 13.3817Z" fill="#D4EEFC"/>
</svg>

<svg xmlns="http://www.w3.org/2000/svg" viewBox="0 0 103 24"><path fill="#1767CE" d="M0 0h103v24H0z"/><path fill="#fff" d="M6.004 18V6h3.937v12H6.004Zm9.294-10.09L17.562 18h-4.309L10.55 6h2.416a2.276 2.276 0 0 1 1.513.55c.42.346.71.826.82 1.36ZM18.154 18V6h3.937v12h-3.937Zm6.91-7.436a2.382 2.382 0 0 1-2.4-2.4 2.303 2.303 0 0 1 .323-1.2 2.412 2.412 0 0 1 3.278-.862c.355.21.652.506.861.862.215.363.326.778.322 1.2a2.4 2.4 0 0 1-1.183 2.079 2.303 2.303 0 0 1-1.2.32ZM28.057 18V6h3.937v12h-3.937Zm8.922-5.442c.011.012.096.15.253.414.158.264.364.602.617 1.014a316.22 316.22 0 0 1 1.597 2.62c.247.411.529.876.845 1.394h-4.326c-.27-.44-.516-.837-.735-1.192-.22-.355-.453-.738-.7-1.149-.249-.41-.494-.81-.737-1.2-.242-.389-.45-.73-.625-1.022a18.04 18.04 0 0 0-.363-.592 1.748 1.748 0 0 1-.287-.845c.017-.29.11-.57.27-.811.068-.113.192-.313.372-.6s.391-.628.633-1.023c.243-.394.488-.797.736-1.208l.7-1.158.736-1.2h4.326l-3.346 5.46a1.079 1.079 0 0 0-.17.54c.012.202.082.396.203.558h.001Z"/><path fill="#D4EEFC" d="M54.408 6.054h-9.547v1.485h3.89v10.502h1.784V7.539h3.873V6.054ZM57.89 9.371a3.366 3.366 0 0 0-.9.389 4.44 4.44 0 0 0-.798.633c-.04.04-.08.084-.12.126V9.262l-1.732.253v8.526h1.733v-6.379a4.388 4.388 0 0 1 .925-.493c.176-.067.354-.126.536-.176a3.644 3.644 0 0 1 1.189-.127l.203-1.587a3.259 3.259 0 0 0-1.036.092ZM67.64 16.977a.777.777 0 0 1-.662-.27 1.446 1.446 0 0 1-.187-.895l.034-3.478a4.034 4.034 0 0 0-.136-1.08c-.082-.31-.22-.601-.407-.861a2.297 2.297 0 0 0-.705-.625 3.61 3.61 0 0 0-1.028-.388 6.098 6.098 0 0 0-1.342-.135c-.358 0-.715.022-1.07.067a7.387 7.387 0 0 0-.994.194c-.302.082-.6.18-.891.296l-.204 1.435a10.02 10.02 0 0 1 1.545-.422 6.17 6.17 0 0 1 .705-.093c.232-.017.462-.025.689-.025.346-.008.692.032 1.027.118.245.06.47.183.654.354.164.167.281.374.34.6.073.278.107.565.102.852l-.002.423-1.986.133a5.306 5.306 0 0 0-1.97.44 2.82 2.82 0 0 0-1.164.936 2.173 2.173 0 0 0-.382 1.241c-.003.415.1.825.297 1.19.208.376.52.684.9.887.464.24.982.356 1.504.338.49.01.976-.07 1.436-.237.397-.154.76-.384 1.07-.675a4.65 4.65 0 0 0 .334-.354c.033.175.095.343.183.497.152.259.385.46.663.574.308.123.637.184.968.178.102 0 .201-.003.298-.009a1.54 1.54 0 0 0 .28-.042l.246-.059c.067-.015.132-.035.196-.06l.187-1.13c-.094.032-.191.054-.29.067a1.892 1.892 0 0 1-.237.018Zm-2.545-1.026a2.255 2.255 0 0 1-.283.267 3.28 3.28 0 0 1-.595.37c-.21.102-.433.176-.662.22a3.76 3.76 0 0 1-.722.068 1.928 1.928 0 0 1-.807-.152 1.106 1.106 0 0 1-.501-.43 1.254 1.254 0 0 1-.17-.667c-.016-.282.061-.56.22-.794a1.3 1.3 0 0 1 .714-.422c.434-.102.88-.147 1.325-.135h1.488l-.007 1.675ZM74.036 5.429a5.564 5.564 0 0 0-1.113-.101 3.44 3.44 0 0 0-1.087.169c-.333.109-.638.29-.891.531a2.474 2.474 0 0 0-.595.904c-.15.41-.222.846-.212 1.283V9.43h-1.274v1.317h1.274v7.294h1.732v-7.294h2.379V9.43H71.87v-1.4a1.576 1.576 0 0 1 .094-.566c.055-.154.145-.292.263-.406.123-.112.272-.193.433-.236.191-.053.388-.078.586-.076.136 0 .266.006.391.017.125.01.246.028.365.05.12.023.232.045.34.068.096.019.19.047.28.084l-.068-1.4a4.1 4.1 0 0 0-.518-.136ZM75.93 18.041h1.732v-8.78l-1.732.254v8.526ZM77.416 5.724a1.106 1.106 0 0 0-.586-.16 1.147 1.147 0 0 0-.594.16 1.243 1.243 0 0 0-.434.422 1.085 1.085 0 0 0-.16.583 1.15 1.15 0 0 0 .595 1.013c.18.101.385.154.593.152.206.002.408-.05.586-.152.175-.1.319-.246.416-.422.102-.18.155-.384.153-.591a1.134 1.134 0 0 0-.153-.583 1.197 1.197 0 0 0-.416-.422ZM87.702 9.43h-2.124l-2.906 3.175h-.627V5.293l-1.733.253v12.494h1.733v-4.136h.028l3.471 4.136h2.242l-4.12-4.615 4.036-3.996ZM92.584 13.382l4.035-3.996h-2.123L91.59 12.56h-.627V5.25l-1.733.253v12.494h1.733V13.86h.028l3.471 4.137h2.242l-4.12-4.615Z"/></svg>
